X:1
T:Title
%%score ( 1 2 ) 3
L:1/8
Q:1/4=98
M:3/4
K:G
V:1 treble nm="Choir Aahs, Soprano"
V:2 treble 
V:3 bass nm="Choir Aahs, In Sweetest Accord"
V:1
 [dgbd'][egbe'] [dgbd']2 [Bdgb]2 | [GBdg]6 | [EGce][Gceg] [Acea]2 [Gceg]2 | [Bdgb]6 | %4
w: By~Carl~Harold~Lowden * * *||||
 [dgbd'][egbe'] [dgbd']2 [Bdgb]2 | [GBeg]6 | [EA^ce][Acea] [Acea]2 [Bcgb]2 | [Aa]6 | %8
w: ||||
 [DGBd][EGBe] [GBdg]2 [Ada]2 | [Bdgb]6 | [EGce][Gceg] [cegc']2 [Gceg]2 | [B^db]6 | %12
w: ||||
 [e^ge'][dgd'] [cgc']2 [Bgb]2 | [dad'][cac'] [Beb]2 [Aea]2 | [DGBd]2 [GBdg]2 [Acdfa]2 | [GBdg]6 | %16
w: ||||
 [DB]3 [EB] [GB][Ac] | [Bd]6 | [ce]3 [Ee] [Ge][A^d] | [Bd]6 | [df]3 [ce] [Bd][Ac] | %21
w: |||||
 [GB][Ac] [Bd]2 [GB]2 | [E^c]2 [Ac]2 [Bc]2 | [Ac]6 | [DB]3 [EB] [GB][Ac] | [Bd]6 | %26
w: |||||
 [ce]3 [Ee] [Ge][Ae] | [B^d]6 | [Bd]3 [d=f] [ce][Bd] | [B^c]2 [Ac]2 [Ec]2 | [GB]2 [FB]2 [DB]2 | %31
w: |||||
 [GB]6- | [GB]4 z2 |] %33
w: ||
V:2
 x6 | x6 | x6 | x6 | x6 | x6 | x6 | z [ce] [Bd]2 [Bc]2 | x6 | x6 | x6 | x6 | x6 | x6 | x6 | x6 | %16
 x6 | x6 | x6 | x6 | x6 | x6 | x6 | x6 | x6 | x6 | x6 | x6 | x6 | x6 | x6 | x6 | x6 |] %33
V:3
 G,,2 [D,G,B,]2 [D,F,B,]2 | G,,[D,G,B,] [D,G,B,]2 [D,G,B,]2 | C,2 [E,G,C]2 [E,G,C]2 | %3
 G,,[D,G,B,] [D,G,B,]2 [D,G,B,]2 | G,,2 [D,G,B,]2 [D,G,B,]2 | E,,[E,G,B,] [E,G,B,]2 [E,G,B,]2 | %6
 A,,2 [G,A,^C]2 [G,A,C]2 | D,,[F,CD][K:treble] [G,CE]2 [A,CF]2 | G,,2 [D,G,B,]2 [D,G,B,]2 | %9
 G,,[D,G,B,] [D,G,B,]2 [D,G,B,]2 | C,2 [E,G,C]2 [E,G,C]2 | B,,[^D,F,B,] [D,F,B,]2 [D,F,B,]2 | %12
 E,,2 [E,^G,D]2 [E,G,D]2 | A,,2 [E,A,C]2 [E,A,C]2 | D,2 [D,G,B,]2 [D,F,C]2 | [G,,D,G,B,]6 | %16
 G,,2 [D,G,B,]2 [D,G,B,]2 | G,,2 [D,G,B,]2 [D,G,B,]2 | [C,,C,]2 [E,G,C]2 [E,G,C]2 | %19
 G,,2 [D,G,B,]2 [E,G,B,]2 | D,,2 [D,F,C]2 [D,F,C]2 | G,,2 [D,G,B,]2 [D,G,B,]2 | %22
 A,,2 [G,A,^C]2 [G,A,C]2 | F,,2 [D,F,C]2 [D,F,C]2 | [G,,D,]2 [G,B,]2 [G,B,]2 | %25
 G,,2 [D,G,B,]2 [D,G,B,]2 | [C,,C,]2 [E,G,C]2 [E,G,C]2 | [B,,,B,,]2 [F,B,^D]2 [F,B,D]2 | %28
 E,,2 [E,^G,D]2 [E,G,D]2 | A,,2 [G,A,^C]2 [G,A,C]2 | D,,2 [D,F,C]2 [D,F,C]2 | G,,2 [D,G,B,]4- | %32
 [D,G,B,]4 z2 |] %33

